src/svg/toggle.svg

<svg xmlns="http://www.w3.org/2000/svg" width="512" height="512" viewBox="0 0 512 512"><path d="M386.481 193.24l31.665-26.544c1.472 2.315 2.913 4.655 4.292 7.045 7.275 12.601 12.991 25.825 17.184 39.402l-40.371 7.972c-3.149-9.259-7.215-18.284-12.211-26.938l-.559-.937zm14.706 119.158c-2.924 9.975-6.893 19.718-11.916 29.062l32.912 24.88.256-.427c8.427-14.596 14.772-30.025 19.062-45.875l-40.314-7.64zm-28.698 53.986c-28.459 34.337-71.014 54.742-116.478 54.742-54.054 0-104.002-28.838-131.029-75.649-27.026-46.812-27.026-104.486 0-151.299 1.755-3.039 3.611-5.997 5.555-8.882l33.244 23.912v-103.039l-97.887 32.631 31.46 22.628c-2.726 3.991-5.329 8.087-7.769 12.313-34.329 59.458-34.329 132.714 0 192.173 34.328 59.458 97.769 96.086 166.427 96.086 58.368 0 112.956-26.485 149.102-70.954l-32.625-24.662zm34.237-83.469l40.316 7.641c1.736-16.007 1.453-32.179-.844-48.131l-40.146 7.926c1.4 10.803 1.614 21.722.674 32.564zm-37.967-113.964l31.34-26.271c-10.11-11.457-21.484-21.609-33.86-30.273l-23.445 33.483c9.462 6.626 18.179 14.358 25.965 23.061zm-77.747-118.951h-70v184.001h70v-184.001z"/></svg>

<?xml version="1.0" encoding="utf-8"?>

<!-- License Agreement at http://iconmonstr.com/license/ -->

<!DOCTYPE svg PUBLIC "-//W3C//DTD SVG 1.1//EN" "http://www.w3.org/Graphics/SVG/1.1/DTD/svg11.dtd">
<svg version="1.1" xmlns="http://www.w3.org/2000/svg" xmlns:xlink="http://www.w3.org/1999/xlink" x="0px" y="0px"
	 width="512px" height="512px" viewBox="0 0 512 512" enable-background="new 0 0 512 512" xml:space="preserve">
<path id="power-off-3-icon" d="M386.481,193.24l31.665-26.544c1.472,2.315,2.913,4.655,4.292,7.045
	c7.275,12.601,12.991,25.825,17.184,39.402l-40.371,7.972c-3.149-9.259-7.215-18.284-12.211-26.938
	C386.857,193.862,386.665,193.554,386.481,193.24z M401.187,312.398c-2.924,9.975-6.893,19.718-11.916,29.062l32.912,24.88
	c0.083-0.144,0.173-0.282,0.256-0.427c8.427-14.596,14.772-30.025,19.062-45.875L401.187,312.398z M372.489,366.384
	c-28.459,34.337-71.014,54.742-116.478,54.742c-54.054,0-104.002-28.838-131.029-75.649c-27.026-46.812-27.026-104.486,0-151.299
	c1.755-3.039,3.611-5.997,5.555-8.882l33.244,23.912V106.169L65.894,138.8l31.46,22.628c-2.726,3.991-5.329,8.087-7.769,12.313
	c-34.329,59.458-34.329,132.714,0,192.173C123.913,425.372,187.354,462,256.012,462c58.368,0,112.956-26.485,149.102-70.954
	L372.489,366.384z M406.726,282.915l40.316,7.641c1.736-16.007,1.453-32.179-0.844-48.131l-40.146,7.926
	C407.452,261.154,407.666,272.073,406.726,282.915z M368.759,168.951l31.34-26.271c-10.11-11.457-21.484-21.609-33.86-30.273
	l-23.445,33.483C352.256,152.516,360.973,160.248,368.759,168.951z M291.012,50h-70v184.001h70V50z"/>
</svg>
